X: 1
P: I Sing a Song of the Saints of God
C: Christian hymn, attrib. to John H. Hopkins, tune "Grand Isle"
C: arr. T. Traub 8-23-04 (as remembered from Casady chapel)
R: march
M: 2/4
L: 1/8
K: D
d2 | "G"g2 "C"g2 |"G"g2 Bc|"Am"d2-"D"d e | "G"d4|"Em"B2 cd |"C"G2 "D"A2|"G"B4-|"G"B2 Bd|"Em"g2 g2 |"Bm"f2 d2|"C"e2 "D"fe |"G"d2 BG|"D"A2 d2 |"A"e2 f2 |"D"d4-|"D7"d2  d2||
"G"B2 BB |"C"G2 AB|"Am"c2 cc |"D"A2 Bc|"G"d2 d2 |"Em"B2 cd|"C"e2 e2 |"D"f2 ed|"Em"g2 g2 |"Bm"f2 d2|"C"ee "D"fe|"G"d2 g2|"C"e2 dc|"D"B2 A2|"G"G4-|G2 |]
